X:1
T:All Things Are Quite Silent
M:3/4
L:1/4
K:C
A/2-G/2| F E D| G A B| GA/2-G/2 E| D2D/2-E/2| F E D| G- A B| GA/2-G/2 E|\
 D2 A/2c/2|B/2-A/2G/2-A/2 B|c/2-B/2 A A| d c d| A2 A/2G/2| F E D| G A B|\
 GA/2-G/2 E| D2||
